libs/shared/images/icons-sharp-light/tachograph-digital.svg

<svg xmlns="http://www.w3.org/2000/svg" viewBox="0 0 640 512"><defs><style>.fa-secondary{opacity:.4}</style></defs><path class="fa-secondary" d="M0 64L0 448l640 0 0-384L0 64zm64 64l288 0 0 128L64 256l0-128zm0 160l32 0 0 32-32 0 0-32zm0 64l16 0 256 0 16 0 0 32-16 0L80 384l-16 0 0-32zm64-64l32 0 0 32-32 0 0-32zm64 0l32 0 0 32-32 0 0-32zm64 0l32 0 0 32-32 0 0-32zm64 0l32 0 0 32-32 0 0-32zm64 64l16 0 160 0 16 0 0 32-16 0-160 0-16 0 0-32z"/><path class="fa-primary" d="M352 128L64 128l0 128 288 0 0-128zM80 352l-16 0 0 32 16 0 256 0 16 0 0-32-16 0L80 352zm320 0l-16 0 0 32 16 0 160 0 16 0 0-32-16 0-160 0z"/></svg>

<svg xmlns="http://www.w3.org/2000/svg" viewBox="0 0 640 512"><path d="M32 96V416H608V96H32zM0 64H32 608h32V96 416v32H608 32 0V416 96 64zm96 96v64H320V160H96zM64 128H96 320h32v32 64 32H320 96 64V224 160 128zm0 224H80 336h16v32H336 80 64V352zm320 0h16H560h16v32H560 400 384V352zM96 288v32H64V288H96zm32 0h32v32H128V288zm96 0v32H192V288h32zm32 0h32v32H256V288zm96 0v32H320V288h32z"/></svg>
